X:208
T:The Fiddler's Xmas Reel
R:reel
C:Bruce Osborne - Nov. 2002
Z:abc by bosborne@kos.net
M:2/4
L:1/8
K:G
D/F/|GG/F/ G/D/B,/D/|G/F/G/B/ d/B/G/B/|A/G/A/B/ c/A/F/A/|G/F/G/E/ DD/F/|\
GG/F/ G/D/B,/D/|G/F/G/B/ d/B/G/B/|A/G/A/B/ c/A/F/A/|G/F/G/A/ G:|
|:B/c/|d/B/G/B/ d/B/e/d/|c/B/A/G/ F/A/D/A/|F/A/D/A/ F/A/B/A/|G/F/G/A/ BB/c/|\
d/B/G/B/ d/B/e/d/|c/B/A/G/ F/A/D/A/|F/A/D/A/ F/A/B/A/|G/F/G/A/ G:|
